X:0089
M:6/8
L:1/8
Q:3/8=84
P:ABA % Aird prints a da capo
K:G
P:A
g2d B2G|ecA F2D|G2A Bcd|dcB A3 |
g2d B2G|ecA F2D|EFG edc|BcA G3:|
P:B
e2d efg|dcB A2G|c2B cde|dcB A2c|

